X: 284
T: Jaybird
B: canberra pickers and fiddlers
B: tunes
M:4/4
L:1/8
Q: 1/4=100
K:D
V:1 
ag | "D"f2d2 f2d2 | fa2f a2gf | "A"e2c2    e2c2 |    eg2e g2ag|
 "D"f2d2 f2d2 | fa2f a2Bc | "G"dcdB "A"ABAG |1"D"F2D2 D2  :|2"D"F2D2D2EF||
|:"G"G2B2B2 AG | "D"F2A2A2cd   | "A"e2ef     e2d2 | "A"cBAB A2 EF  |
 "G"G2B2B2 AG | "D"F2A2A2Bc   | "G"dcdB "A"ABAG |1"D"F2D2 D2EF  :|2"D"F2D2D2z2|]
% abcbook-tune_id 63da5934ee682d6091eb6df9
% abcbook-tune_composer_id 
% abcbook-link-0 https://www.youtube.com/watch?v=Wi930YLFk6s
% abcbook-boost 0
% abcbook-difficulty 0
% abcbook-tags canberra pickers and fiddlers,old time tunes,© free
% abcbook-tablature 
% abcbook-transpose 
% abcbook-tuning ADAE
% abcbook-lastupdated 1738712769351
% abcbook-src-url https://tunebook.net/scrape/tunes.abc
% abcbook-soundfonts 
% abcbook-repeats 1
%%gchordfont "itim-music,Itim" 20

